X: 157
T: Dawanwan kaihua
%%abc-version 2.0
%%abcx-abcm2ps-target-version 5.9.1 (29 Sep 2008)
%%abc-creator hum2abc beta
%%abcx-conversion-date 2013/10/02 07:52:29
%%abc-edited-by Helmut Schaffrath
%%humdrum-veritas 415074721
%%humdrum-veritas-data 2460935181
%%continueall 1
%%barnumbers 0
L: 1/8
M: 2/4
K: G
e e/ d/ B d [I:setbarnb 1]| 
e e/ d/ B d | 
e e/ g/ B/ d/ B/ d/ | 
e4 | 
d d/ e/ a f | 
e3d | 
B e G A | 
B e G A | 
G> A d F | 
E4 |]  



